lib/flags/s/JO.svg

<svg xmlns="http://www.w3.org/2000/svg" fill="none" viewBox="0 0 16 12"><mask id="JO_svg__a" width="16" height="12" x="0" y="0" mask-type="alpha" maskUnits="userSpaceOnUse"><path fill="#fff" d="M0 0H16V12H0z"/></mask><g mask="url(#JO_svg__a)"><path fill="#F7FCFF" fill-rule="evenodd" d="M0 0V12H16V0H0Z" clip-rule="evenodd"/><mask id="JO_svg__b" width="16" height="12" x="0" y="0" mask-type="alpha" maskUnits="userSpaceOnUse"><path fill="#fff" fill-rule="evenodd" d="M0 0V12H16V0H0Z" clip-rule="evenodd"/></mask><g fill-rule="evenodd" clip-rule="evenodd" mask="url(#JO_svg__b)"><path fill="#272727" d="M0 0V4H16V0H0Z"/><path fill="#093" d="M0 8V12H16V8H0Z"/></g><path fill="#E31D1C" fill-rule="evenodd" d="M0 0V12L10 6L0 0Z" clip-rule="evenodd"/><mask id="JO_svg__c" width="10" height="12" x="0" y="0" mask-type="alpha" maskUnits="userSpaceOnUse"><path fill="#fff" fill-rule="evenodd" d="M0 0V12L10 6L0 0Z" clip-rule="evenodd"/></mask><g mask="url(#JO_svg__c)"><path fill="#F7FCFF" fill-rule="evenodd" d="M4.5009 6.93534L3.56556 7.5L3.77891 6.39812L3 5.57347L4.05468 5.52888L4.5009 4.5L4.94711 5.52888H6L5.22289 6.39812L5.45685 7.5L4.5009 6.93534Z" clip-rule="evenodd"/></g></g></svg>

<svg xmlns="http://www.w3.org/2000/svg" fill="none" viewBox="0 0 16 12"><mask id="JO_svg__a" width="16" height="12" x="0" y="0" maskUnits="userSpaceOnUse"><path fill="#fff" d="M0 0h16v12H0z"/></mask><g mask="url(#JO_svg__a)"><path fill="#F7FCFF" fill-rule="evenodd" d="M0 0v12h16V0H0z" clip-rule="evenodd"/><mask id="JO_svg__b" width="16" height="12" x="0" y="0" maskUnits="userSpaceOnUse"><path fill="#fff" fill-rule="evenodd" d="M0 0v12h16V0H0z" clip-rule="evenodd"/></mask><g fill-rule="evenodd" clip-rule="evenodd" mask="url(#JO_svg__b)"><path fill="#272727" d="M0 0v4h16V0H0z"/><path fill="#093" d="M0 8v4h16V8H0z"/></g><path fill="#E31D1C" fill-rule="evenodd" d="M0 0v12l10-6L0 0z" clip-rule="evenodd"/><mask id="JO_svg__c" width="10" height="12" x="0" y="0" maskUnits="userSpaceOnUse"><path fill="#fff" fill-rule="evenodd" d="M0 0v12l10-6L0 0z" clip-rule="evenodd"/></mask><g mask="url(#JO_svg__c)"><path fill="#F7FCFF" fill-rule="evenodd" d="M4.5 6.935l-.934.565.213-1.102L3 5.573l1.055-.044L4.5 4.5l.446 1.029H6l-.777.87.234 1.101-.956-.565z" clip-rule="evenodd"/></g></g></svg>
